X:1
T: Soldier's Dance
C:
R:Jig
Q:180
K:A
M:6/8
L:1/16
|:E2|A4A2 A2G2A2|B4B2 e4c2|A4A2 A2G2G2|G2B2G2 E2F2G2|
A4A2 A2G2A2|B4B2 e4d2|c2B2A2 B2A2G2|A6A4:|
|:A2|e4e2 c2d2e2|f4f2 f6|g4g2 e2f2g2|a4a2 a6|
e4e2 c2d2e2|f2g2a2 a2g2f2|e2d2c2 B2A2G2|A4A2 A4:|
